X:1
T: Miss Stewart's Reel
C:Robert Mackintosh
R:Reel
Q: 232
K:F
M:4/4
L:1/8
|:c|f2 fc AF FA|G1/2G1/2G gf df ga|f2 fc AF cA|Bd cA F1/2F1/2F Fc|
f2 fc AF FA|G1/2G1/2G gf df ga|f2 fc AF cA|Bd cA F1/2F1/2F Fc|
f2 a1/2g1/2f eg gb|af ba g1/2g1/2g ga|f2 a1/2g1/2f eg ga|fa ge f1/2f1/2f fc|
f2 af eg gb|af ba g1/2g1/2g ge|fd Bg ec Af|Bd cA F1/2F1/2F F:|
